static/icons/basic/gt-underscore.svg

<svg width="53" height="32" viewBox="0 0 53 32" fill="none" xmlns="http://www.w3.org/2000/svg">
<path fill-rule="evenodd" clip-rule="evenodd" d="M0.759657 0.749926C1.77253 -0.249975 3.41473 -0.249975 4.4276 0.749926L17.9829 14.1316C18.9957 15.1315 18.9957 16.7526 17.9829 17.7525L4.4276 31.1342C3.41473 32.1341 1.77253 32.1341 0.759657 31.1342C-0.253219 30.1343 -0.253219 28.5131 0.759657 27.5132L12.4809 15.942L0.759657 4.37089C-0.253219 3.37099 -0.253219 1.74983 0.759657 0.749926Z" fill="#121315"/>
<path d="M25.4998 29.3999C25.4998 27.9804 26.6655 26.8296 28.1034 26.8296H50.3813C51.8276 26.8296 53 27.9871 53 29.4148C53 30.8426 51.8276 32 50.3813 32H39.2499L28.0964 31.9702C26.6612 31.9664 25.4998 30.8167 25.4998 29.3999Z" fill="#121315"/>
</svg>

<svg xmlns="http://www.w3.org/2000/svg" width="53" height="32" fill="none"><path fill="#121315" fill-rule="evenodd" d="M.76.75c1.013-1 2.655-1 3.668 0l13.555 13.382a2.537 2.537 0 0 1 0 3.62L4.428 31.135c-1.013 1-2.655 1-3.668 0a2.537 2.537 0 0 1 0-3.62l11.72-11.572L.76 4.371A2.537 2.537 0 0 1 .76.75" clip-rule="evenodd"/><path fill="#121315" d="M25.5 29.4c0-1.42 1.166-2.57 2.603-2.57h22.278c1.447 0 2.619 1.157 2.619 2.585S51.828 32 50.381 32H39.25l-11.154-.03c-1.435-.004-2.596-1.153-2.596-2.57"/></svg>
